X:1
T: The Burn of Forgue
C:J. Scott Skinner
R:Reel
Q: 232
K:A
M:4/4
L:1/8
|:E|CE AB cA ec|dc BA GF ED|CE AB cA ec|d1/2d1/2d Bd cA AE|
CE AB ce Ae|dc BA GF ED|CE AB ce Ac|d1/2d1/2d Bd cA A:|
|:a|gf ed ce Ae|dc BA GB Ea|gf ed cA ec|d1/2d1/2d Bd cA Aa|
gf ed ce Ae|dc BA GF ED|CE AB cA ec|df Bg aA A:|
